X:316
T:Cross Hand Polka
M:4/4
K:G
G2 D2 D4 | B2 G2 G4 | A2 D2 E2 F2 | GDGB d4 |
G2 D2 D4 | B2 G2 G4 | A2 D2 E2 F2 | G4 G4 :|
d3 B G2 B2 | A2 D2 D4 | d3 B G2 B2 | A2 D2 D4 |
G2 D2 D4 | B2 G2 G4 | A2 D2 E2 F2 | G4 G4 :|
